X:38
T:Polska ur Petter Dufvas notbok (Ma6-38)
R:Polska
O:Verkelbäck, Småland
B:Petter Dufvas notbok
S:Petter Dufva
N:Smus Ma6 bild 40
M:3/4
L:1/8
K:D
defgfe|Bcdedc|dA BAGE|FG A4:| |:AAFDFA|^cBAF G2|
BB ^GEGB|d^cB^G A2|def=gfe|Bcdedc|dA BAGF|EF D2 D2:|

